ghost/admin/public/assets/icons/default-favicon.svg

<svg width="160" height="160" viewBox="0 0 160 160" fill="none" xmlns="http://www.w3.org/2000/svg">
<g clip-path="url(#clip0)">
<path fill-rule="evenodd" clip-rule="evenodd" d="M80 160C102.401 160 129.478 158.836 144 144C158.121 129.574 160 101.782 160 80C160 57.8746 158.516 30.4824 144 16C129.528 1.56212 102.057 0 80 0C57.9327 0 30.4734 1.55064 16 16C1.49503 30.4809 0 57.8845 0 80C0 102.387 1.17997 129.48 16 144C30.4287 158.137 58.2042 160 80 160Z" fill="#15171A"/>
<path fill-rule="evenodd" clip-rule="evenodd" d="M80.3011 24.4492C111.042 24.4492 136 49.2522 136 79.8023C136 110.352 111.042 135.155 80.3011 135.155C49.5599 135.155 24.6021 110.352 24.6021 79.8023C24.6021 49.2522 49.5599 24.4492 80.3011 24.4492ZM36.3406 68.1213C39.1249 45.1913 51.4207 33.7941 79.1492 30.6968C92.3695 29.2199 107.382 40.3893 111.621 45.5337C120.188 55.9292 131 68.3019 131 82.2364C131 101.022 115.856 111.57 99.7008 120.16C92.4199 124.031 84.5541 127.778 75.569 127.778C52.4768 127.778 33.0412 109.756 33.0412 86.8068C33.0412 80.7073 35.5782 74.3993 36.3406 68.1213Z" fill="white"/>
<path fill-rule="evenodd" clip-rule="evenodd" d="M80 140.124C113.689 140.124 141 112.983 141 79.5031C141 46.023 113.689 18.882 80 18.882C46.3106 18.882 19 46.023 19 79.5031C19 112.983 46.3106 140.124 80 140.124ZM80 133.389C109.946 133.389 134.222 109.263 134.222 79.5031C134.222 49.743 109.946 25.6176 80 25.6176C50.0539 25.6176 25.7778 49.743 25.7778 79.5031C25.7778 109.263 50.0539 133.389 80 133.389Z" fill="white"/>
</g>
<defs>
<clipPath id="clip0">
<rect width="160" height="160" fill="white"/>
</clipPath>
</defs>
</svg>

<svg width="160" height="160" viewBox="0 0 160 160" fill="none" xmlns="http://www.w3.org/2000/svg">
  <title>default-favicon</title>
  <g clip-path="url(#a)" fill-rule="evenodd" clip-rule="evenodd">
    <path d="M80 160c22.401 0 49.478-1.164 64-16 14.121-14.426 16-42.218 16-64 0-22.125-1.484-49.518-16-64C129.528 1.562 102.057 0 80 0 57.933 0 30.473 1.55 16 16 1.495 30.48 0 57.885 0 80c0 22.387 1.18 49.48 16 64 14.429 14.137 42.204 16 64 16Z" fill="#15171A"/>
    <path d="M80.301 24.45C111.042 24.45 136 49.251 136 79.801s-24.958 55.353-55.699 55.353-55.699-24.803-55.699-55.353S49.56 24.45 80.302 24.45Zm-43.96 43.67c2.784-22.93 15.08-34.327 42.808-37.424 13.22-1.477 28.233 9.692 32.472 14.837C120.188 55.929 131 68.302 131 82.236c0 18.786-15.144 29.334-31.3 37.924-7.28 3.871-15.146 7.618-24.131 7.618-23.092 0-42.528-18.022-42.528-40.971 0-6.1 2.537-12.408 3.3-18.686Z" fill="#fff"/>
    <path d="M80 140.124c33.689 0 61-27.141 61-60.62 0-33.481-27.311-60.622-61-60.622-33.69 0-61 27.141-61 60.621 0 33.48 27.31 60.621 61 60.621Zm0-6.735c29.946 0 54.222-24.126 54.222-53.886S109.946 25.618 80 25.618 25.778 49.743 25.778 79.503c0 29.76 24.276 53.886 54.222 53.886Z" fill="#fff"/>
  </g>
  <defs>
    <clipPath id="a">
      <path fill="#fff" d="M0 0h160v160H0z"/>
    </clipPath>
  </defs>
</svg>
